X:165
M:3/4
L:1/4
K:Ab
F F/E/ D | C2 G | (A G) F | =E3 | c c c | B2 A | B G2 | A3 | e e d | c2 c | (c B) A | G2 !sintro!G | (A G) F | =E2 c | A2 G/F/ | F3 !eintro!|]
